src/topics/icons/cockpit.svg

<?xml version="1.0" encoding="UTF-8" standalone="no"?>
<svg width="256px" height="256px" viewBox="0 0 256 256" version="1.1" xmlns="http://www.w3.org/2000/svg" xmlns:xlink="http://www.w3.org/1999/xlink" preserveAspectRatio="xMidYMid">
	<g>
		<path d="M256,128 C256,198.692 198.692,256 128,256 C57.308,256 0,198.692 0,128 C0,57.308 57.308,0 128,0 C198.692,0 256,57.308 256,128" fill="#000000"></path>
		<path d="M86.8123,61.6718 L111.2843,86.1438 L74.3753,123.0518 C64.7473,132.6808 74.1083,142.0408 83.7363,132.4128 L138.8313,77.3178 C174.6703,41.4788 231.5043,98.3128 195.6653,134.1518 L179.2173,150.5998 L202.4853,173.8678 L174.6703,201.6828 L129.7383,156.7508 L171.1933,115.2958 C179.0383,107.4508 167.9393,96.3518 160.0943,104.1968 L102.0573,162.2338 C65.4163,194.0608 14.0653,143.2448 45.0893,105.2668 L86.8123,61.6718 Z" fill="#FFFFFF"></path>
	</g>
</svg>

<svg height="256" preserveAspectRatio="xMidYMid" viewBox="0 0 256 256" width="256" xmlns="http://www.w3.org/2000/svg"><path d="m256 128c0 70.692-57.308 128-128 128s-128-57.308-128-128 57.308-128 128-128 128 57.308 128 128"/><path d="m86.8123 61.6718 24.472 24.472-36.909 36.908c-9.628 9.629-.267 18.989 9.361 9.361l55.095-55.095c35.839-35.839 92.673 20.995 56.834 56.834l-16.448 16.448 23.268 23.268-27.815 27.815-44.932-44.932 41.455-41.455c7.845-7.845-3.254-18.944-11.099-11.099l-58.037 58.037c-36.641 31.827-87.992-18.989-56.968-56.967z" fill="#fff"/></svg>
